X:1
T:Title
%%score { ( 1 4 ) | ( 2 3 ) }
L:1/8
M:3/4
K:Eb
V:1 treble nm="Grand Piano"
V:4 treble 
V:2 bass 
V:3 bass 
V:1
 z2 z2 z[Q:1/4=92] G | G3 G FE | A4- AA | A3 A GF |[M:5/8] B-B- B3 |[M:1/8] B | %6
[M:3/4] [=EB]3 [EB] [EA][EG] | A3 C DE | G4 [DF]2 |[M:5/8] E- E3 z |[M:1/8] G |[M:3/4] G3 G FE | %12
 A4- AA | A3 A GF |[M:5/8] B-B- B3 |[M:1/8] B |[M:3/4] [=EB]3 [EB] [EA][EG] | A3 C DE | G4 [DF]2 | %19
[M:5/8] E- E3 z |[M:1/8] G |[M:3/4] B3 A FA | G4[K:bass] G,2 | B,3 A, A,F, | G,4[K:treble] E2 | %25
[M:27/32] z/4 z/4 z/4 z/4 z/4 z/4 z/4 z/4 z/4 z/4 z/4 z/4 z/4 z/4 z/ [DF]/4-[DF]/4-[DF]/4-[DF]/4-[DF]/4-[DF]/4-[DF]/-<[DF]/ z/4 | %26
[M:5/8] E-E- E2- E/4 z/4 z/ |] %27
V:2
 z2 z2 z [E,B,E] | z2 z2 .[B,D]2 | [F,B,D]4- [F,B,D][F,B,D] | [F,B,D]3 [F,B,D] [B,D][A,B,D] | %4
[M:5/8] [G,B,E]-[G,B,E]- [G,B,E]3 |[M:1/8] [G,B,E] |[M:3/4] [C,G,]3 [C,G,] [C,C][C,C] | %7
 [F,CF]3 [F,A,] [F,A,C][F,=A,C] | [B,E]4 [B,,A,]2 |[M:5/8] [E,G,]- [E,G,]3 z |[M:1/8] [E,B,E] | %11
[M:3/4] z2 z2 .[B,D]2 | [F,B,D]4- [F,B,D][F,B,D] | [F,B,D]3 [F,B,D] [B,D][A,B,D] | %14
[M:5/8] [G,B,E]-[G,B,E]- [G,B,E]3 |[M:1/8] [G,B,E] |[M:3/4] [C,G,]3 [C,G,] [C,C][C,C] | %17
 [F,CF]3 [F,A,] [F,A,C][F,=A,C] | [B,E]4 [B,,A,]2 |[M:5/8] [E,G,]- [E,G,]3 z |[M:1/8][K:treble] E | %21
[M:3/4] D3 C A,C | B,4 E,2 | D,3 F, F,B,, | E,4 [C,_G,=A,]2 | %25
[M:27/32] [B,,G,B,]/4-[B,,G,B,]/4-[B,,G,B,]/4-[B,,G,B,]/4-[B,,G,B,]/4-[B,,G,B,]/4-[B,,G,B,]/4-[B,,G,B,]/4-[B,,G,B,]/-<[B,,G,B,]/[B,,F,B,]/-<[B,,F,B,]/ z/4 z/4 z/4 z/4 z/4 z/4 z/ [E,G,B,]3/4 | %26
[M:5/8] [E,G,B,]-[E,G,B,]- [E,G,B,]2- [E,G,B,]/4 z/4 z/ |] %27
V:3
 x6 | [E,B,E]3 [E,B,E] A,-[G,A,B,] | x6 | x6 |[M:5/8] x5 |[M:1/8] x |[M:3/4] x6 | x6 | x6 | %9
[M:5/8] x5 |[M:1/8] x |[M:3/4] [E,B,E]3 [E,B,E] A,-[G,A,B,] | x6 | x6 |[M:5/8] x5 |[M:1/8] x | %16
[M:3/4] x6 | x6 | x6 |[M:5/8] x5 |[M:1/8][K:treble] x |[M:3/4] x6 | x6 | x6 | x6 | %25
[M:27/32] z/4 z/4 z/4 z/4 z/4 z/4 z/4 z/4 z/4 z/4 z/4 z/4 z/4 z/4 z/ [B,,A,]/4-[B,,A,]/4-[B,,A,]/4-[B,,A,]/4-[B,,A,]/4-[B,,A,]/4-[B,,A,]/-<[B,,A,]/ z/4 | %26
[M:5/8] x5 |] %27
V:4
 x6 | x6 | x6 | x6 |[M:5/8] x5 |[M:1/8] x |[M:3/4] x6 | x6 | x6 |[M:5/8] x5 |[M:1/8] x | %11
[M:3/4] x6 | x6 | x6 |[M:5/8] x5 |[M:1/8] x |[M:3/4] x6 | x6 | x6 |[M:5/8] x5 |[M:1/8] x | %21
[M:3/4] x6 | x4[K:bass] x2 | x6 | x4[K:treble] x2 | %25
[M:27/32] E/4-E/4-E/4-E/4-E/4-E/4-E/4-E/4-E/-<E/E/-<E/ z/4 z/4 z/4 z/4 z/4 z/4 z/ E3/4 | %26
[M:5/8] x5 |] %27

